assets/img/services/engenharia-mecanica.svg

<svg fill="none" height="188" viewBox="0 0 188 188" width="188" xmlns="http://www.w3.org/2000/svg"><path d="m93.3575 186.715c51.5595 0 93.3575-41.798 93.3575-93.3575 0-51.5599-41.798-93.3575-93.3575-93.3575-51.5599 0-93.3575 41.7976-93.3575 93.3575 0 51.5595 41.7976 93.3575 93.3575 93.3575z" fill="#901a21"/><path d="m1.03735 94.5677c.51866 51.1733 42.01085 92.4933 93.35745 92.4933 51.3462 0 92.8392-41.32 93.3572-92.4933z" fill="#ed1c24"/><g fill="#fff"><path d="m90.7641 64.6587c.1729-1.2102.1729-2.4204.1729-3.6306s-.1729-2.2475-.3458-3.4577l-6.0509-1.0372-2.0746-5.7052 3.9763-4.6679c-1.2102-2.0746-2.5933-3.9764-4.3221-5.5323l-5.5322 2.7662-5.0137-3.4577.5186-6.0509c-2.0746-.8645-4.3221-1.5561-6.5696-1.9018l-2.7661 5.3595-6.0509.1728-3.112-5.3594c-2.2475.5187-4.495 1.383-6.5696 2.4203l.8644 6.051-4.8407 3.6306-5.5323-2.4204c-1.556 1.7288-2.939 3.6306-3.9763 5.8781l4.3221 4.3221-1.7289 5.878-6.0509 1.3831c-.1729 1.2102-.1729 2.4204-.1729 3.6306s.1728 2.2474.3457 3.2847l6.051 1.0374 2.0746 5.7052-3.9763 4.6678c1.2102 2.0747 2.5932 3.9764 4.3221 5.5324l5.5323-2.7662 5.0136 3.4576-.5187 6.051c2.0747.8644 4.3222 1.556 6.7426 2.0746l2.7661-5.3594 6.0509-.1729 3.1119 5.1865c2.2475-.5186 4.4951-1.383 6.5697-2.4203l-.8644-6.0509 4.8407-3.6307 5.7052 2.4205c1.5559-1.7289 2.939-3.8035 3.9763-5.8781l-4.3221-4.3222 1.7288-5.878zm-17.1155 12.4477c-8.2984 7.2612-20.919 6.3967-28.1801-1.9018-7.2611-8.2984-6.3967-20.9189 1.7289-28.1801 8.2984-7.2611 20.9189-6.3967 28.1801 1.9017 7.2611 8.2985 6.3967 20.9191-1.7289 28.1802z"/><path d="m162.511 118.08c.173-1.729.173-3.458.173-5.187 0-1.728-.173-3.457-.519-5.013l-8.817-1.383-2.939-8.2988 5.878-6.7424c-1.728-2.939-3.976-5.7052-6.396-8.1256l-7.953 3.9763-7.434-5.0135.864-8.99c-3.111-1.2102-6.223-2.2476-9.681-2.7663l-4.149 7.9528-8.99.1728-4.495-7.7798c-3.458.8645-6.743 1.9018-9.6818 3.4577l1.383 8.8172-7.0882 5.3593-8.2984-3.6305c-2.2475 2.5933-4.3221 5.3594-5.8781 8.4713l6.2238 6.3967-2.5933 8.4718-8.817 1.901c-.1729 1.729-.1729 3.631-.1729 5.36 0 1.728.1729 3.284.5187 5.013l8.817 1.556 2.9391 8.472-5.8781 6.742c1.7288 2.939 3.9763 5.705 6.3967 8.299l8.1256-3.977 7.4339 5.014-.864 8.99c3.112 1.383 6.396 2.42 9.854 2.939l4.149-7.953 8.817-.173 4.668 7.78c3.458-.864 6.743-1.902 9.682-3.458l-1.383-8.817 7.088-5.359 8.298 3.458c2.248-2.594 4.15-5.533 5.878-8.472l-6.396-6.396 2.42-8.645zm-25.241 18.153c-12.102 10.719-30.773 9.508-41.4921-2.594-10.7188-12.274-9.5086-30.773 2.5933-41.4917 12.1018-10.7189 30.7738-9.5086 41.4918 2.7662 10.719 12.1015 9.509 30.6005-2.593 41.3195z"/></g></svg>

<svg width="188" height="188" viewBox="0 0 188 188" fill="none" xmlns="http://www.w3.org/2000/svg">
<path d="M93.3575 186.715C144.917 186.715 186.715 144.917 186.715 93.3575C186.715 41.7976 144.917 0 93.3575 0C41.7976 0 0 41.7976 0 93.3575C0 144.917 41.7976 186.715 93.3575 186.715Z" fill="#901A21"/>
<path d="M1.03735 94.5677C1.55601 145.741 43.0482 187.061 94.3948 187.061C145.741 187.061 187.234 145.741 187.752 94.5677H1.03735Z" fill="#ED1C24"/>
<path d="M90.7641 64.6587C90.937 63.4485 90.937 62.2383 90.937 61.0281C90.937 59.8179 90.7641 58.7806 90.5912 57.5704L84.5403 56.5332L82.4657 50.828L86.442 46.1601C85.2318 44.0855 83.8487 42.1837 82.1199 40.6278L76.5877 43.394L71.574 39.9363L72.0926 33.8854C70.018 33.0209 67.7705 32.3293 65.523 31.9836L62.7569 37.3431L56.706 37.5159L53.594 32.1565C51.3465 32.6752 49.099 33.5395 47.0244 34.5768L47.8888 40.6278L43.0481 44.2584L37.5158 41.838C35.9598 43.5668 34.5768 45.4686 33.5395 47.7161L37.8616 52.0382L36.1327 57.9162L30.0818 59.2993C29.9089 60.5095 29.9089 61.7197 29.9089 62.9299C29.9089 64.1401 30.0817 65.1773 30.2546 66.2146L36.3056 67.252L38.3802 72.9572L34.4039 77.625C35.6141 79.6997 36.9971 81.6014 38.726 83.1574L44.2583 80.3912L49.2719 83.8488L48.7532 89.8998C50.8279 90.7642 53.0754 91.4558 55.4958 91.9744L58.2619 86.615L64.3128 86.4421L67.4247 91.6286C69.6722 91.11 71.9198 90.2456 73.9944 89.2083L73.13 83.1574L77.9707 79.5267L83.6759 81.9472C85.2318 80.2183 86.6149 78.1437 87.6522 76.0691L83.3301 71.7469L85.0589 65.8689L90.7641 64.6587ZM73.6486 77.1064C65.3502 84.3676 52.7296 83.5031 45.4685 75.2046C38.2074 66.9062 39.0718 54.2857 47.1974 47.0245C55.4958 39.7634 68.1163 40.6278 75.3775 48.9262C82.6386 57.2247 81.7742 69.8453 73.6486 77.1064Z" fill="white"/>
<path d="M162.511 118.08C162.684 116.351 162.684 114.622 162.684 112.893C162.684 111.165 162.511 109.436 162.165 107.88L153.348 106.497L150.409 98.1982L156.287 91.4558C154.559 88.5168 152.311 85.7506 149.891 83.3302L141.938 87.3065L134.504 82.293L135.368 73.303C132.257 72.0928 129.145 71.0554 125.687 70.5367L121.538 78.4895L112.548 78.6623L108.053 70.8825C104.595 71.747 101.31 72.7843 98.3712 74.3402L99.7542 83.1574L92.666 88.5167L84.3676 84.8862C82.1201 87.4795 80.0455 90.2456 78.4895 93.3575L84.7133 99.7542L82.12 108.226L73.303 110.127C73.1301 111.856 73.1301 113.758 73.1301 115.487C73.1301 117.215 73.303 118.771 73.6488 120.5L82.4658 122.056L85.4049 130.528L79.5268 137.27C81.2556 140.209 83.5031 142.975 85.9235 145.569L94.0491 141.592L101.483 146.606L100.619 155.596C103.731 156.979 107.015 158.016 110.473 158.535L114.622 150.582L123.439 150.409L128.107 158.189C131.565 157.325 134.85 156.287 137.789 154.731L136.406 145.914L143.494 140.555L151.792 144.013C154.04 141.419 155.942 138.48 157.67 135.541L151.274 129.145L153.694 120.5L162.511 118.08ZM137.27 136.233C125.168 146.952 106.497 145.741 95.7779 133.639C85.0591 121.365 86.2693 102.866 98.3712 92.1473C110.473 81.4284 129.145 82.6387 139.863 94.9135C150.582 107.015 149.372 125.514 137.27 136.233Z" fill="white"/>
</svg>
